svg/fluentui-system-icons/ic_fluent_table_lock_32_filled.svg

<svg width="32" height="32" viewBox="0 0 32 32" fill="none" xmlns="http://www.w3.org/2000/svg">
<path d="M9 4H10V10H4V9C4 6.23858 6.23858 4 9 4ZM12 4H20V10H12V4ZM12 12H20V15.9995C19.5422 16.6088 19.2204 17.3261 19.0796 18.1064C17.9939 18.3621 17.0788 19.0602 16.5351 20H12V12ZM24 14C25.6356 14 27.0878 14.7853 28 15.9995V12H22V14.416C22.6125 14.1484 23.2889 14 24 14ZM12 22H16V28H12V22ZM22 4V10H28V9C28 6.23858 25.7614 4 23 4H22ZM10 12H4V20H10V12ZM4 22H10V28H9C6.23858 28 4 25.7614 4 23V22ZM20.5 19.5H20C18.6193 19.5 17.5 20.6193 17.5 22V28C17.5 29.3807 18.6193 30.5 20 30.5H28C29.3807 30.5 30.5 29.3807 30.5 28V22C30.5 20.6193 29.3807 19.5 28 19.5H27.5V19C27.5 17.067 25.933 15.5 24 15.5C22.067 15.5 20.5 17.067 20.5 19V19.5ZM22.5 19C22.5 18.1716 23.1716 17.5 24 17.5C24.8284 17.5 25.5 18.1716 25.5 19V19.5H22.5V19ZM26 25C26 26.1046 25.1046 27 24 27C22.8954 27 22 26.1046 22 25C22 23.8954 22.8954 23 24 23C25.1046 23 26 23.8954 26 25Z" fill="#212121"/>
</svg>

<svg xmlns="http://www.w3.org/2000/svg" width="32" height="32"><path d="M9 4h1v6H4V9a5 5 0 0 1 5-5Zm3 0h8v6h-8V4Zm0 8h8v4a4.976 4.976 0 0 0-.92 2.106A4.01 4.01 0 0 0 16.535 20H12v-8Zm12 2a4.99 4.99 0 0 1 4 2v-4h-6v2.416A4.983 4.983 0 0 1 24 14Zm-12 8h4v6h-4v-6ZM22 4v6h6V9a5 5 0 0 0-5-5h-1Zm-12 8H4v8h6v-8ZM4 22h6v6H9a5 5 0 0 1-5-5v-1Zm16.5-2.5H20a2.5 2.5 0 0 0-2.5 2.5v6a2.5 2.5 0 0 0 2.5 2.5h8a2.5 2.5 0 0 0 2.5-2.5v-6a2.5 2.5 0 0 0-2.5-2.5h-.5V19a3.5 3.5 0 1 0-7 0v.5Zm2-.5a1.5 1.5 0 0 1 3 0v.5h-3V19Zm3.5 6a2 2 0 1 1-4 0 2 2 0 0 1 4 0Z"/></svg>
